X:1
T: George Skene Duff of Milton
C:William Marshall
R:Reel
Q: 232
K:C
M:4/4
L:1/8
|:B|c2 ce c2 ce|c2 ec dD DB|c2 cG ca gf|ec dB cC CB|
c2 ce c2 ce|c2 ec dD DB|c2 cG ca gf|ec dB cC CF|
E1/2F1/2G cG Ec Gc|Ec Gc dD DF|E1/2F1/2G cG Ec Ge|fa gf ec cG|
E1/2F1/2G cG Ec Gc|Ec Gc dD Df|af ge fd ec|cA GF ED C:|
